!!!COM: Claude Goudimel
!!!OMD: Psalm 79: Les gens entrez sont en ton
**kern	**kern	**kern	**kern
*part4	*part3	*part2	*part1
*staff4	*staff3	*staff2	*staff1
*I"bassus	*I"tenor	*I"contra	*I"superius
*clefC4	*clefC3	*clefC2	*clefG2
!!LO:TX:omd:t=
*M2/2	*M2/2	*M2/2	*M2/2
*met(c|)	*met(c|)	*met(c|)	*met(c|)
=1	=1	=1	=1
1G	1G	1d	1g
=2	=2	=2	=2
1F	1c	1f	1a
=3	=3	=3	=3
1D	1d	1f	1a
=4	=4	=4	=4
1C	1e	1g	1cc
=5	=5	=5	=5
1C	1e	1g	1cc
=6	=6	=6	=6
2C	2e	2g	2cc
2C	2e	2g	2cc
=7	=7	=7	=7
2G	2d	2g	2b
2D	2f	2a	2dd
=8	=8	=8	=8
1A	1e	1a	1cc#X
=9	=9	=9	=9
1D	1d	1f#X	1dd
=10	=10	=10	=10
1r	1r	1r	1r
=11	=11	=11	=11
1G	1G	1B	1d
=12	=12	=12	=12
2F	2c	2f	2a
2D	2d	2f	2a
=13	=13	=13	=13
1C	1e	1g	1cc
=14	=14	=14	=14
1F	1f	1a	1cc
=15	=15	=15	=15
2C	2e	2g	2cc
2G	2d	2g	2b
=16	=16	=16	=16
2c	2e	2g	2cc
2A	2f	2c	2cc
=17	=17	=17	=17
1G	1g	1d	1b
=18	=18	=18	=18
2C	2e	2c	2g
2C	2e	2g	2cc
=19	=19	=19	=19
2G	2d	2g	2cc
2G	2d	2g	2b
=20	=20	=20	=20
1C	1c	1e	1cc
=21	=21	=21	=21
1C	1c	1e	1g
=22	=22	=22	=22
2C	2c	2e	2g
2G	2B	2d	2g
=23	=23	=23	=23
2F	2c	2f	2a
2G	2B	2d	[2g
=24	=24	=24	=24
1D	1A	1d	2g]
.	.	.	2f#X
=25	=25	=25	=25
1G	1G	1d	1g
=26	=26	=26	=26
1r	1r	1r	1r
=27	=27	=27	=27
1C	1c	1e	1g
=28	=28	=28	=28
2F	2c	2f	2a
2G	2B	2d	2g
=29	=29	=29	=29
1C	1c	1e	1g
=30	=30	=30	=30
1C	1G	1c	1e
=31	=31	=31	=31
2F	2A	2c	2f
2A	2c	2A	2e
=32	=32	=32	=32
2G	2d	2B	2g
2C	2e	[2c	2g
=33	=33	=33	=33
1G	1d	2c]	1g
.	.	2B	.
=34	=34	=34	=34
1C	1c	1c	1g
=35	=35	=35	=35
1r	1r	1r	1r
=36	=36	=36	=36
1C	1G	1c	1g
=37	=37	=37	=37
2C	2c	2e	2g
2G	2B	[2d	2g
=38	=38	=38	=38
1A	1c	2d]	1e
.	.	[2c	.
=39	=39	=39	=39
1G	1d	2c]	1g
.	.	2B	.
=40	=40	=40	=40
1C	1e	1c	1g
=41	=41	=41	=41
1r	1r	1r	1r
=42	=42	=42	=42
1C	1G	1c	1g
=43	=43	=43	=43
2C	2c	2e	2g
2G	2B	[2d	2g
=44	=44	=44	=44
1A	1c	2d]	1e
.	.	[2c	.
=45	=45	=45	=45
1G	1d	2c]	1g
.	.	2B	.
=46	=46	=46	=46
1C	1e	1c	1g
=47	=47	=47	=47
1r	1r	1r	1r
=48	=48	=48	=48
1c	1e	1g	1cc
=49	=49	=49	=49
2A	2e	2a	2cc
2c	2e	2g	2cc
=50	=50	=50	=50
2G	2d	2g	2b
2F	2f	2a	2cc
=51	=51	=51	=51
1c	1e	1g	1cc
=52	=52	=52	=52
1G	1d	1g	1b
=53	=53	=53	=53
1r	1r	1r	1r
=54	=54	=54	=54
1C	1g	1e	1cc
=55	=55	=55	=55
2F	2f	2a	2cc
2C	2e	2g	2cc
=56	=56	=56	=56
1G	1d	1g	1b
=57	=57	=57	=57
1F	1f	1c	1a
=58	=58	=58	=58
1C	1e	1c	1g
=59	=59	=59	=59
1r	1r	1r	1r
=60	=60	=60	=60
1C	1e	1g	1cc
=61	=61	=61	=61
2G	2d	2g	2b
2A	2c	2e	2a
=62	=62	=62	=62
2E	2B	2e	2g
2F	2A	2c	2f
=63	=63	=63	=63
1C	1G	1c	1e
=64	=64	=64	=64
1r	1r	1r	1r
=65	=65	=65	=65
1C	1G	1e	1c
=66	=66	=66	=66
2F	2A	2f	2c
2C	2c	2e	2g
=67	=67	=67	=67
2G	2d	2d	2g
2C	2e	[2c	2g
=68	=68	=68	=68
1G	1d	2c]	1g
.	.	2B	.
=69	=69	=69	=69
1C;	1c;	1c;	1g;
==	==	==	==
*-	*-	*-	*-
!!!software: music21 v.9.7.1
!!!software: music21 v.9.1.0
!!!RDF**kern: > = above
!!!RDF**kern: < = below
